; G-Code generated by Simplify3D(R) Version 4.1.1
; Sep 19, 2020 at 11:39:31 PM
; Settings Summary
;   processName,Process1
;   applyToModels,ComputeCap
;   profileName,Creality Ender 3 Pro(3) (modified)
;   profileVersion,2019-04-06 08:00:00
;   baseProfile,
;   printMaterial,PLA
;   printQuality,Medium
;   printExtruders,
;   extruderName,Primary Extruder
;   extruderToolheadNumber,0
;   extruderDiameter,0.4
;   extruderAutoWidth,0
;   extruderWidth,0.4
;   extrusionMultiplier,0.9
;   extruderUseRetract,1
;   extruderRetractionDistance,4
;   extruderExtraRestartDistance,0
;   extruderRetractionZLift,0
;   extruderRetractionSpeed,2400
;   extruderUseCoasting,0
;   extruderCoastingDistance,0.2
;   extruderUseWipe,0
;   extruderWipeDistance,5
;   primaryExtruder,0
;   layerHeight,0.2
;   topSolidLayers,3
;   bottomSolidLayers,3
;   perimeterOutlines,2
;   printPerimetersInsideOut,1
;   startPointOption,2
;   startPointOriginX,0
;   startPointOriginY,0
;   sequentialIslands,0
;   spiralVaseMode,0
;   firstLayerHeightPercentage,120
;   firstLayerWidthPercentage,150
;   firstLayerUnderspeed,0.5
;   useRaft,0
;   raftExtruder,0
;   raftTopLayers,3
;   raftBaseLayers,2
;   raftOffset,3
;   raftSeparationDistance,0.14
;   raftTopInfill,100
;   aboveRaftSpeedMultiplier,0.3
;   useSkirt,1
;   skirtExtruder,0
;   skirtLayers,1
;   skirtOutlines,2
;   skirtOffset,4
;   usePrimePillar,0
;   primePillarExtruder,999
;   primePillarWidth,12
;   primePillarLocation,7
;   primePillarSpeedMultiplier,1
;   useOozeShield,0
;   oozeShieldExtruder,999
;   oozeShieldOffset,2
;   oozeShieldOutlines,1
;   oozeShieldSidewallShape,1
;   oozeShieldSidewallAngle,30
;   oozeShieldSpeedMultiplier,1
;   infillExtruder,0
;   internalInfillPattern,Rectilinear
;   externalInfillPattern,Rectilinear
;   infillPercentage,10
;   outlineOverlapPercentage,15
;   infillExtrusionWidthPercentage,100
;   minInfillLength,5
;   infillLayerInterval,1
;   internalInfillAngles,45,-45
;   overlapInternalInfillAngles,0
;   externalInfillAngles,45,-45
;   generateSupport,0
;   supportExtruder,0
;   supportInfillPercentage,30
;   supportExtraInflation,0
;   supportBaseLayers,0
;   denseSupportExtruder,0
;   denseSupportLayers,0
;   denseSupportInfillPercentage,70
;   supportLayerInterval,1
;   supportHorizontalPartOffset,0.3
;   supportUpperSeparationLayers,1
;   supportLowerSeparationLayers,1
;   supportType,0
;   supportGridSpacing,4
;   maxOverhangAngle,45
;   supportAngles,0
;   temperatureName,Primary Extruder,Heated Bed
;   temperatureNumber,0,0
;   temperatureSetpointCount,1,1
;   temperatureSetpointLayers,1,1
;   temperatureSetpointTemperatures,210,60
;   temperatureStabilizeAtStartup,1,1
;   temperatureHeatedBed,0,1
;   fanLayers,1,2
;   fanSpeeds,0,100
;   blipFanToFullPower,0
;   adjustSpeedForCooling,1
;   minSpeedLayerTime,15
;   minCoolingSpeedSlowdown,20
;   increaseFanForCooling,0
;   minFanLayerTime,45
;   maxCoolingFanSpeed,100
;   increaseFanForBridging,0
;   bridgingFanSpeed,100
;   use5D,1
;   relativeEdistances,0
;   allowEaxisZeroing,1
;   independentExtruderAxes,0
;   includeM10123,0
;   stickySupport,1
;   applyToolheadOffsets,0
;   gcodeXoffset,0
;   gcodeYoffset,0
;   gcodeZoffset,0
;   overrideMachineDefinition,1
;   machineTypeOverride,0
;   strokeXoverride,220
;   strokeYoverride,220
;   strokeZoverride,250
;   originOffsetXoverride,-5
;   originOffsetYoverride,-5
;   originOffsetZoverride,0
;   homeXdirOverride,-1
;   homeYdirOverride,-1
;   homeZdirOverride,-1
;   flipXoverride,1
;   flipYoverride,-1
;   flipZoverride,1
;   toolheadOffsets,0,0|0,0|0,0|0,0|0,0|0,0
;   overrideFirmwareConfiguration,1
;   firmwareTypeOverride,RepRap (Marlin/Repetier/Sprinter)
;   GPXconfigOverride,r2
;   baudRateOverride,115200
;   overridePrinterModels,1
;   printerModelsOverride
;   startingGcode,G28 ; home all axes,G1 X5 Y10 Z0.2 F3000 ; get ready to prime,G92 E0 ; reset extrusion distance,G1 X160 E15 F600 ; prime nozzle,G1 X180 F5000 ; quick wipe
;   layerChangeGcode,
;   retractionGcode,
;   toolChangeGcode,
;   endingGcode,G28 X0 ; home X axis,M106 S0 ; turn off cooling fan,M104 S0 ; turn off extruder,M140 S0 ; turn off bed,M84 ; disable motors
;   exportFileFormat,gcode
;   celebration,0
;   celebrationSong,Random Song
;   postProcessing,
;   defaultSpeed,2400
;   outlineUnderspeed,0.5
;   solidInfillUnderspeed,0.8
;   supportUnderspeed,0.8
;   rapidXYspeed,4800
;   rapidZspeed,1000
;   minBridgingArea,50
;   bridgingExtraInflation,0
;   bridgingExtrusionMultiplier,1
;   bridgingSpeedMultiplier,1
;   useFixedBridgingAngle,0
;   fixedBridgingAngle,0
;   applyBridgingToPerimeters,0
;   filamentDiameters,1.75|1.75|1.75|1.75|1.75|1.75
;   filamentPricesPerKg,46|46|46|46|46|46
;   filamentDensities,1.25|1.25|1.25|1.25|1.25|1.25
;   useMinPrintHeight,0
;   minPrintHeight,0
;   useMaxPrintHeight,0
;   maxPrintHeight,0
;   useDiaphragm,0
;   diaphragmLayerInterval,20
;   robustSlicing,1
;   mergeAllIntoSolid,0
;   onlyRetractWhenCrossingOutline,1
;   retractBetweenLayers,1
;   useRetractionMinTravel,0
;   retractionMinTravel,3
;   retractWhileWiping,0
;   onlyWipeOutlines,1
;   avoidCrossingOutline,0
;   maxMovementDetourFactor,3
;   toolChangeRetractionDistance,12
;   toolChangeExtraRestartDistance,-0.5
;   toolChangeRetractionSpeed,600
;   externalThinWallType,0
;   internalThinWallType,2
;   thinWallAllowedOverlapPercentage,10
;   singleExtrusionMinLength,1
;   singleExtrusionMinPrintingWidthPercentage,50
;   singleExtrusionMaxPrintingWidthPercentage,200
;   singleExtrusionEndpointExtension,0.2
;   horizontalSizeCompensation,0
G90
M82
M106 S0
M140 S60
M190 S60
M104 S210 T0
M109 S210 T0
G28 ; home all axes
G1 X5 Y10 Z0.2 F3000 ; get ready to prime
G92 E0 ; reset extrusion distance
G1 X160 E15 F600 ; prime nozzle
G1 X180 F5000 ; quick wipe
; process Process1
; layer 1, Z = 0.240
T0
G92 E0.0000
G1 E-4.0000 F2400
; feature skirt
; tool H0.240 W0.600
G1 Z0.240 F1000
G1 X88.534 Y88.362 F4800
G1 E0.0000 F2400
G92 E0.0000
G1 X93.945 Y83.921 E0.3772 F1200
G1 X94.345 Y83.654 E0.4031
G1 X100.412 Y80.411 E0.7738
G1 X100.857 Y80.227 E0.7997
G1 X107.441 Y78.230 E1.1704
G1 X107.913 Y78.136 E1.1964
G1 X114.759 Y77.461 E1.5670
G1 X115.241 Y77.461 E1.5930
G1 X122.087 Y78.136 E1.9637
G1 X122.559 Y78.230 E1.9896
G1 X129.143 Y80.227 E2.3603
G1 X129.588 Y80.411 E2.3862
G1 X135.655 Y83.654 E2.7569
G1 X136.055 Y83.921 E2.7829
G1 X141.466 Y88.362 E3.1600
G1 X141.951 Y88.896 E3.1989
G1 X145.849 Y94.723 E3.5767
G1 X146.271 Y96.057 E3.6520
G1 X146.362 Y100.080 E3.8689
G1 X146.363 Y100.136 E3.8718
G1 X146.363 Y129.864 E5.4736
G1 X146.362 Y129.920 E5.4766
G1 X146.271 Y133.943 E5.6935
G1 X145.849 Y135.277 E5.7688
G1 X141.951 Y141.104 E6.1466
G1 X141.466 Y141.638 E6.1855
G1 X136.055 Y146.078 E6.5626
G1 X135.655 Y146.346 E6.5886
G1 X129.588 Y149.589 E6.9592
G1 X129.143 Y149.773 E6.9852
G1 X122.559 Y151.770 E7.3559
G1 X122.087 Y151.864 E7.3818
G1 X115.241 Y152.539 E7.7525
G1 X114.759 Y152.539 E7.7784
G1 X107.913 Y151.864 E8.1491
G1 X107.441 Y151.770 E8.1751
G1 X100.857 Y149.773 E8.5458
G1 X100.412 Y149.589 E8.5717
G1 X94.345 Y146.346 E8.9424
G1 X93.945 Y146.078 E8.9683
G1 X88.534 Y141.638 E9.3455
G1 X88.049 Y141.104 E9.3844
G1 X84.149 Y135.274 E9.7623
G1 X83.727 Y133.934 E9.8380
G1 X83.638 Y129.473 E10.0784
G1 X83.637 Y129.424 E10.0810
G1 X83.637 Y100.136 E11.6591
G1 X83.638 Y100.080 E11.6621
G1 X83.729 Y96.057 E11.8789
G1 X84.151 Y94.723 E11.9543
G1 X88.049 Y88.896 E12.3320
G1 X88.534 Y88.362 E12.3709
G92 E0.0000
G1 E-4.0000 F2400
G1 X88.948 Y88.798 F4800
G1 E0.0000 F2400
G92 E0.0000
G1 X94.302 Y84.404 E0.3732 F1200
G1 X94.654 Y84.169 E0.3960
G1 X100.669 Y80.954 E0.7635
G1 X101.059 Y80.792 E0.7862
G1 X107.586 Y78.812 E1.1537
G1 X108.001 Y78.730 E1.1765
G1 X114.789 Y78.061 E1.5440
G1 X115.211 Y78.061 E1.5668
G1 X121.999 Y78.730 E1.9343
G1 X122.413 Y78.812 E1.9571
G1 X128.941 Y80.792 E2.3246
G1 X129.331 Y80.954 E2.3473
G1 X135.346 Y84.169 E2.7148
G1 X135.698 Y84.404 E2.7376
G1 X141.052 Y88.798 E3.1108
G1 X141.477 Y89.267 E3.1449
G1 X145.303 Y94.986 E3.5157
G1 X145.673 Y96.156 E3.5818
G1 X145.762 Y100.091 E3.7938
G1 X145.763 Y100.139 E3.7965
G1 X145.763 Y129.861 E5.3979
G1 X145.762 Y129.909 E5.4005
G1 X145.673 Y133.844 E5.6126
G1 X145.303 Y135.014 E5.6787
G1 X141.477 Y140.733 E6.0495
G1 X141.052 Y141.202 E6.0836
G1 X135.698 Y145.596 E6.4568
G1 X135.346 Y145.831 E6.4795
G1 X129.331 Y149.046 E6.8470
G1 X128.941 Y149.208 E6.8698
G1 X122.413 Y151.188 E7.2373
G1 X121.999 Y151.270 E7.2601
G1 X115.211 Y151.939 E7.6276
G1 X114.789 Y151.939 E7.6504
G1 X108.001 Y151.270 E8.0179
G1 X107.587 Y151.188 E8.0406
G1 X101.059 Y149.208 E8.4081
G1 X100.669 Y149.046 E8.4309
G1 X94.654 Y145.831 E8.7984
G1 X94.302 Y145.596 E8.8212
G1 X88.948 Y141.202 E9.1944
G1 X88.523 Y140.733 E9.2285
G1 X84.695 Y135.012 E9.5994
G1 X84.325 Y133.836 E9.6658
G1 X84.238 Y129.464 E9.9014
G1 X84.237 Y129.421 E9.9037
G1 X84.237 Y100.139 E11.4815
G1 X84.238 Y100.091 E11.4841
G1 X84.327 Y96.156 E11.6962
G1 X84.697 Y94.986 E11.7623
G1 X88.523 Y89.267 E12.1330
G1 X88.948 Y88.798 E12.1672
G92 E0.0000
G1 E-4.0000 F2400
; feature inner perimeter
G1 X92.595 Y92.532 F4800
G1 E0.0000 F2400
G92 E0.0000
G1 X97.369 Y88.614 E0.3328 F900
G1 X102.856 Y85.681 E0.6680
G1 X108.809 Y83.876 E1.0032
G1 X115.000 Y83.266 E1.3384
G1 X121.191 Y83.876 E1.6736
G1 X127.144 Y85.681 E2.0088
G1 X132.631 Y88.614 E2.3440
G1 X137.405 Y92.532 E2.6768
G1 X140.494 Y97.149 E2.9761
G1 X140.563 Y100.174 E3.1391
G1 X140.563 Y129.826 E4.7368
G1 X140.494 Y132.851 E4.8998
G1 X137.405 Y137.468 E5.1991
G1 X132.631 Y141.386 E5.5319
G1 X127.144 Y144.319 E5.8671
G1 X121.191 Y146.124 E6.2023
G1 X115.000 Y146.734 E6.5375
G1 X108.809 Y146.124 E6.8727
G1 X102.856 Y144.319 E7.2079
G1 X97.369 Y141.386 E7.5431
G1 X92.595 Y137.468 E7.8759
G1 X89.507 Y132.852 E8.1752
G1 X89.437 Y129.390 E8.3617
G1 X89.437 Y100.174 E9.9359
G1 X89.506 Y97.149 E10.0989
G1 X92.595 Y92.532 E10.3982
; feature outer perimeter
G1 X92.146 Y92.125 F4800
G92 E0.0000
G1 X97.034 Y88.113 E0.3408 F600
G1 X102.625 Y85.124 E0.6823
G1 X108.691 Y83.284 E1.0239
G1 X115.000 Y82.663 E1.3655
G1 X121.309 Y83.284 E1.7070
G1 X127.375 Y85.124 E2.0486
G1 X132.966 Y88.113 E2.3901
G1 X137.854 Y92.125 E2.7309
G1 X141.090 Y96.961 E3.0444
G1 X141.163 Y100.167 E3.2172
G1 X141.163 Y129.833 E4.8157
G1 X141.090 Y133.039 E4.9885
G1 X137.854 Y137.875 E5.3020
G1 X132.966 Y141.887 E5.6428
G1 X127.375 Y144.876 E5.9843
G1 X121.309 Y146.716 E6.3259
G1 X115.000 Y147.337 E6.6674
G1 X108.691 Y146.716 E7.0090
G1 X102.625 Y144.876 E7.3506
G1 X97.034 Y141.887 E7.6921
G1 X92.146 Y137.875 E8.0329
G1 X88.910 Y133.039 E8.3464
G1 X88.837 Y129.397 E8.5427
G1 X88.837 Y100.167 E10.1177
G1 X88.910 Y96.961 E10.2904
G1 X92.146 Y92.125 E10.6040
G1 X96.035 Y94.506 F4800
G92 E0.0000
G1 X95.864 Y94.826 E0.0196 F600
G1 X95.759 Y95.173 E0.0391
G1 X95.723 Y95.534 E0.0587
G1 X95.759 Y95.896 E0.0782
G1 X95.864 Y96.243 E0.0978
G1 X96.035 Y96.563 E0.1173
G1 X96.265 Y96.844 E0.1369
G1 X96.546 Y97.074 E0.1564
G1 X96.866 Y97.245 E0.1760
G1 X97.213 Y97.350 E0.1956
G1 X97.574 Y97.386 E0.2151
G1 X97.936 Y97.350 E0.2347
G1 X98.283 Y97.245 E0.2542
G1 X98.603 Y97.074 E0.2738
G1 X98.884 Y96.844 E0.2933
G1 X99.114 Y96.563 E0.3129
G1 X99.285 Y96.243 E0.3325
G1 X99.390 Y95.896 E0.3520
G1 X99.426 Y95.534 E0.3716
G1 X99.390 Y95.173 E0.3911
G1 X99.285 Y94.826 E0.4107
G1 X99.114 Y94.506 E0.4302
G1 X98.884 Y94.225 E0.4498
G1 X98.603 Y93.995 E0.4693
G1 X98.283 Y93.824 E0.4889
G1 X97.936 Y93.719 E0.5085
G1 X97.574 Y93.683 E0.5280
G1 X97.213 Y93.719 E0.5476
G1 X96.866 Y93.824 E0.5671
G1 X96.546 Y93.995 E0.5867
G1 X96.265 Y94.225 E0.6062
G1 X96.035 Y94.506 E0.6258
; feature inner perimeter
G1 X95.534 Y94.171 F4800
G92 E0.0000
G1 X95.307 Y94.595 E0.0259 F900
G1 X95.167 Y95.056 E0.0518
G1 X95.120 Y95.534 E0.0778
G1 X95.167 Y96.013 E0.1037
G1 X95.307 Y96.474 E0.1296
G1 X95.534 Y96.898 E0.1556
G1 X95.839 Y97.270 E0.1815
G1 X96.211 Y97.575 E0.2074
G1 X96.635 Y97.802 E0.2333
G1 X97.096 Y97.942 E0.2592
G1 X97.574 Y97.989 E0.2852
G1 X98.053 Y97.942 E0.3111
G1 X99.219 Y97.588 E0.3767
G1 X97.823 Y99.643 E0.5105
G1 X97.772 Y99.761 E0.5175
G1 X97.055 Y100.817 E0.5862
G1 X96.909 Y101.150 E0.6059
G1 X96.909 Y128.850 E2.0983
G1 X97.055 Y129.183 E2.1179
G1 X97.772 Y130.239 E2.1867
G1 X97.823 Y130.357 E2.1937
G1 X98.911 Y131.958 E2.2979
G1 X98.657 Y132.270 E2.3196
G1 X98.287 Y132.117 E2.3412
G1 X97.815 Y132.023 E2.3671
G1 X97.334 Y132.023 E2.3930
G1 X96.862 Y132.117 E2.4189
G1 X96.417 Y132.301 E2.4449
G1 X96.017 Y132.568 E2.4708
G1 X95.677 Y132.909 E2.4967
G1 X95.410 Y133.309 E2.5226
G1 X95.226 Y133.753 E2.5486
G1 X95.132 Y134.225 E2.5745
G1 X95.132 Y134.706 E2.6004
G1 X95.226 Y135.178 E2.6263
G1 X95.410 Y135.623 E2.6523
G1 X95.677 Y136.023 E2.6782
G1 X96.017 Y136.363 E2.7041
G1 X96.417 Y136.630 E2.7300
G1 X96.862 Y136.814 E2.7560
G1 X97.334 Y136.908 E2.7819
G1 X97.815 Y136.908 E2.8078
G1 X98.287 Y136.814 E2.8337
G1 X98.731 Y136.630 E2.8597
G1 X99.131 Y136.363 E2.8856
G1 X99.472 Y136.023 E2.9115
G1 X99.739 Y135.623 E2.9374
G1 X99.923 Y135.178 E2.9634
G1 X100.017 Y134.706 E2.9893
G1 X100.017 Y134.267 E3.0129
G1 X100.398 Y134.150 E3.0344
G1 X101.914 Y136.382 E3.1798
G1 X115.000 Y140.512 E3.9192
G1 X128.086 Y136.382 E4.6586
G1 X129.602 Y134.150 E4.8039
G1 X129.983 Y134.267 E4.8254
G1 X129.983 Y134.684 E4.8479
G1 X130.024 Y134.958 E4.8628
G1 X130.157 Y135.404 E4.8879
G1 X130.385 Y135.829 E4.9139
G1 X130.690 Y136.201 E4.9398
G1 X131.062 Y136.506 E4.9657
G1 X131.486 Y136.733 E4.9917
G1 X131.947 Y136.873 E5.0176
G1 X132.426 Y136.920 E5.0435
G1 X132.904 Y136.873 E5.0694
G1 X133.365 Y136.733 E5.0954
G1 X133.789 Y136.506 E5.1213
G1 X134.161 Y136.201 E5.1472
G1 X134.466 Y135.829 E5.1731
G1 X134.693 Y135.405 E5.1991
G1 X134.833 Y134.944 E5.2250
G1 X134.880 Y134.466 E5.2509
G1 X134.833 Y133.987 E5.2768
G1 X134.693 Y133.526 E5.3028
G1 X134.466 Y133.102 E5.3287
G1 X134.161 Y132.730 E5.3546
G1 X133.789 Y132.425 E5.3805
G1 X133.365 Y132.198 E5.4065
G1 X132.904 Y132.058 E5.4324
G1 X132.426 Y132.011 E5.4583
G1 X131.947 Y132.058 E5.4842
G1 X130.782 Y132.412 E5.5498
G1 X132.177 Y130.357 E5.6837
G1 X132.228 Y130.239 E5.6906
G1 X132.945 Y129.183 E5.7594
G1 X133.091 Y128.850 E5.7790
G1 X133.091 Y101.150 E7.2715
G1 X132.945 Y100.817 E7.2911
G1 X132.228 Y99.761 E7.3598
G1 X132.176 Y99.643 E7.3668
G1 X130.781 Y97.588 E7.5006
G1 X131.947 Y97.942 E7.5662
G1 X132.426 Y97.989 E7.5921
G1 X132.904 Y97.942 E7.6181
G1 X133.365 Y97.802 E7.6440
G1 X133.789 Y97.575 E7.6699
G1 X134.161 Y97.270 E7.6958
G1 X134.466 Y96.898 E7.7218
G1 X134.693 Y96.474 E7.7477
G1 X134.833 Y96.013 E7.7736
G1 X134.880 Y95.534 E7.7995
G1 X134.833 Y95.056 E7.8255
G1 X134.693 Y94.595 E7.8514
G1 X134.466 Y94.171 E7.8773
G1 X134.161 Y93.799 E7.9032
G1 X133.789 Y93.494 E7.9292
G1 X133.365 Y93.267 E7.9551
G1 X132.904 Y93.127 E7.9810
G1 X132.426 Y93.080 E8.0069
G1 X131.947 Y93.127 E8.0329
G1 X131.486 Y93.267 E8.0588
G1 X131.062 Y93.494 E8.0847
G1 X130.690 Y93.799 E8.1106
G1 X130.385 Y94.171 E8.1366
G1 X130.158 Y94.595 E8.1625
G1 X130.018 Y95.056 E8.1884
G1 X129.897 Y96.286 E8.2550
G1 X128.086 Y93.618 E8.4287
G1 X115.000 Y89.488 E9.1681
G1 X101.914 Y93.618 E9.9075
G1 X100.103 Y96.286 E10.0812
G1 X99.982 Y95.056 E10.1478
G1 X99.842 Y94.595 E10.1737
G1 X99.615 Y94.171 E10.1997
G1 X99.310 Y93.799 E10.2256
G1 X98.938 Y93.494 E10.2515
G1 X98.514 Y93.267 E10.2774
G1 X98.053 Y93.127 E10.3034
G1 X97.574 Y93.080 E10.3293
G1 X97.096 Y93.127 E10.3552
G1 X96.635 Y93.267 E10.3811
G1 X96.211 Y93.494 E10.4071
G1 X95.839 Y93.799 E10.4330
G1 X95.534 Y94.171 E10.4589
G92 E0.0000
G1 E-4.0000 F2400
; feature outer perimeter
G1 X98.351 Y99.934 F4800
G1 E0.0000 F2400
G92 E0.0000
G1 X98.300 Y100.052 E0.0070 F600
G1 X97.583 Y101.108 E0.0757
G1 X97.509 Y101.276 E0.0856
G1 X97.509 Y128.724 E1.5645
G1 X97.583 Y128.892 E1.5744
G1 X98.300 Y129.948 E1.6432
G1 X98.351 Y130.066 E1.6501
G1 X102.293 Y135.872 E2.0283
G1 X115.000 Y139.883 E2.7462
G1 X127.707 Y135.872 E3.4642
G1 X131.649 Y130.066 E3.8423
G1 X131.700 Y129.948 E3.8493
G1 X132.417 Y128.892 E3.9180
G1 X132.491 Y128.724 E3.9279
