; G-Code generated by Simplify3D(R) Version 4.1.1
; Sep 19, 2020 at 9:19:51 PM
; Settings Summary
;   processName,Process1
;   applyToModels,Wheel,Wheel(2),Wheel(3),Wheel(4)
;   profileName,Creality CR-10(4) (modified)
;   profileVersion,2018-01-19 08:00:00
;   baseProfile,
;   printMaterial,PLA
;   printQuality,Medium
;   printExtruders,
;   extruderName,Primary Extruder
;   extruderToolheadNumber,0
;   extruderDiameter,0.4
;   extruderAutoWidth,0
;   extruderWidth,0.4
;   extrusionMultiplier,1
;   extruderUseRetract,1
;   extruderRetractionDistance,5
;   extruderExtraRestartDistance,0
;   extruderRetractionZLift,0
;   extruderRetractionSpeed,1800
;   extruderUseCoasting,0
;   extruderCoastingDistance,0.2
;   extruderUseWipe,0
;   extruderWipeDistance,5
;   primaryExtruder,0
;   layerHeight,0.2
;   topSolidLayers,3
;   bottomSolidLayers,3
;   perimeterOutlines,2
;   printPerimetersInsideOut,1
;   startPointOption,2
;   startPointOriginX,0
;   startPointOriginY,0
;   sequentialIslands,0
;   spiralVaseMode,0
;   firstLayerHeightPercentage,120
;   firstLayerWidthPercentage,150
;   firstLayerUnderspeed,0.5
;   useRaft,0
;   raftExtruder,0
;   raftTopLayers,3
;   raftBaseLayers,2
;   raftOffset,3
;   raftSeparationDistance,0.14
;   raftTopInfill,100
;   aboveRaftSpeedMultiplier,0.3
;   useSkirt,1
;   skirtExtruder,0
;   skirtLayers,1
;   skirtOutlines,2
;   skirtOffset,4
;   usePrimePillar,0
;   primePillarExtruder,999
;   primePillarWidth,12
;   primePillarLocation,7
;   primePillarSpeedMultiplier,1
;   useOozeShield,0
;   oozeShieldExtruder,999
;   oozeShieldOffset,2
;   oozeShieldOutlines,1
;   oozeShieldSidewallShape,1
;   oozeShieldSidewallAngle,30
;   oozeShieldSpeedMultiplier,1
;   infillExtruder,0
;   internalInfillPattern,Rectilinear
;   externalInfillPattern,Rectilinear
;   infillPercentage,5
;   outlineOverlapPercentage,15
;   infillExtrusionWidthPercentage,100
;   minInfillLength,5
;   infillLayerInterval,1
;   internalInfillAngles,45,-45
;   overlapInternalInfillAngles,0
;   externalInfillAngles,45,-45
;   generateSupport,1
;   supportExtruder,0
;   supportInfillPercentage,30
;   supportExtraInflation,0
;   supportBaseLayers,0
;   denseSupportExtruder,0
;   denseSupportLayers,0
;   denseSupportInfillPercentage,70
;   supportLayerInterval,1
;   supportHorizontalPartOffset,0.3
;   supportUpperSeparationLayers,1
;   supportLowerSeparationLayers,1
;   supportType,0
;   supportGridSpacing,4
;   maxOverhangAngle,45
;   supportAngles,0
;   temperatureName,Primary Extruder,Heated Bed
;   temperatureNumber,0,0
;   temperatureSetpointCount,1,1
;   temperatureSetpointLayers,1,1
;   temperatureSetpointTemperatures,230,60
;   temperatureStabilizeAtStartup,1,1
;   temperatureHeatedBed,0,1
;   fanLayers,1
;   fanSpeeds,0
;   blipFanToFullPower,0
;   adjustSpeedForCooling,1
;   minSpeedLayerTime,15
;   minCoolingSpeedSlowdown,20
;   increaseFanForCooling,0
;   minFanLayerTime,45
;   maxCoolingFanSpeed,100
;   increaseFanForBridging,0
;   bridgingFanSpeed,100
;   use5D,1
;   relativeEdistances,0
;   allowEaxisZeroing,1
;   independentExtruderAxes,0
;   includeM10123,0
;   stickySupport,1
;   applyToolheadOffsets,0
;   gcodeXoffset,0
;   gcodeYoffset,0
;   gcodeZoffset,0
;   overrideMachineDefinition,1
;   machineTypeOverride,0
;   strokeXoverride,300
;   strokeYoverride,300
;   strokeZoverride,400
;   originOffsetXoverride,0
;   originOffsetYoverride,0
;   originOffsetZoverride,0
;   homeXdirOverride,-1
;   homeYdirOverride,-1
;   homeZdirOverride,-1
;   flipXoverride,1
;   flipYoverride,-1
;   flipZoverride,1
;   toolheadOffsets,0,0|0,0|0,0|0,0|0,0|0,0
;   overrideFirmwareConfiguration,1
;   firmwareTypeOverride,RepRap (Marlin/Repetier/Sprinter)
;   GPXconfigOverride,r2
;   baudRateOverride,115200
;   overridePrinterModels,1
;   printerModelsOverride
;   startingGcode,G28 ; home all axes,G29; Probe,G1 Z5 F3000 ; lift,G1 X5 Y10 F1500 ; move to prime,G1 Z0.2 F3000 ; get ready to prime,G92 E0 ; reset extrusion distance,G1 Y80 E10 F600 ; prime nozzle,G1 Y100 F5000 ; quick wipe
;   layerChangeGcode,
;   retractionGcode,
;   toolChangeGcode,
;   endingGcode,G28 X0 ; home x axis,M106 S0 ; turn off cooling fan,M104 S0 ; turn off extruder,M140 S0 ; turn off bed,M84 ; disable motors
;   exportFileFormat,gcode
;   celebration,0
;   celebrationSong,Random Song
;   postProcessing,
;   defaultSpeed,2400
;   outlineUnderspeed,0.5
;   solidInfillUnderspeed,0.8
;   supportUnderspeed,0.8
;   rapidXYspeed,4800
;   rapidZspeed,1000
;   minBridgingArea,50
;   bridgingExtraInflation,0
;   bridgingExtrusionMultiplier,1
;   bridgingSpeedMultiplier,1
;   useFixedBridgingAngle,0
;   fixedBridgingAngle,0
;   applyBridgingToPerimeters,0
;   filamentDiameters,1.75|1.75|1.75|1.75|1.75|1.75
;   filamentPricesPerKg,46|46|46|46|46|46
;   filamentDensities,1.25|1.25|1.25|1.25|1.25|1.25
;   useMinPrintHeight,0
;   minPrintHeight,0
;   useMaxPrintHeight,0
;   maxPrintHeight,0
;   useDiaphragm,0
;   diaphragmLayerInterval,20
;   robustSlicing,1
;   mergeAllIntoSolid,0
;   onlyRetractWhenCrossingOutline,1
;   retractBetweenLayers,1
;   useRetractionMinTravel,0
;   retractionMinTravel,3
;   retractWhileWiping,0
;   onlyWipeOutlines,1
;   avoidCrossingOutline,0
;   maxMovementDetourFactor,3
;   toolChangeRetractionDistance,12
;   toolChangeExtraRestartDistance,-0.5
;   toolChangeRetractionSpeed,600
;   externalThinWallType,0
;   internalThinWallType,2
;   thinWallAllowedOverlapPercentage,10
;   singleExtrusionMinLength,1
;   singleExtrusionMinPrintingWidthPercentage,50
;   singleExtrusionMaxPrintingWidthPercentage,200
;   singleExtrusionEndpointExtension,0.2
;   horizontalSizeCompensation,0
G90
M82
M106 S0
M140 S60
M190 S60
M104 S230 T0
M109 S230 T0
G28 ; home all axes
G29; Probe
G1 Z5 F3000 ; lift
G1 X5 Y10 F1500 ; move to prime
G1 Z0.2 F3000 ; get ready to prime
G92 E0 ; reset extrusion distance
G1 Y80 E10 F600 ; prime nozzle
G1 Y100 F5000 ; quick wipe
; process Process1
; layer 1, Z = 0.240
T0
G92 E0.0000
G1 E-5.0000 F1800
; feature skirt
; tool H0.240 W0.600
G1 Z0.240 F1000
G1 X114.305 Y114.646 F4800
G1 E0.0000 F1800
G92 E0.0000
G1 X114.646 Y114.305 E0.0288 F1200
G1 X117.642 Y111.846 E0.2609
G1 X118.042 Y111.579 E0.2897
G1 X121.460 Y109.752 E0.5217
G1 X121.905 Y109.567 E0.5506
G1 X125.614 Y108.442 E0.7826
G1 X126.086 Y108.348 E0.8114
G1 X129.944 Y107.968 E1.0435
G1 X130.425 Y107.968 E1.0723
G1 X134.282 Y108.348 E1.3043
G1 X134.754 Y108.442 E1.3332
G1 X138.463 Y109.567 E1.5652
G1 X138.908 Y109.752 E1.5940
G1 X142.326 Y111.579 E1.8261
G1 X142.727 Y111.846 E1.8549
G1 X145.723 Y114.305 E2.0869
G1 X146.063 Y114.646 E2.1158
G1 X148.522 Y117.642 E2.3478
G1 X148.790 Y118.042 E2.3766
G1 X150.000 Y120.306 E2.5303
G1 X151.210 Y118.042 E2.6841
G1 X151.478 Y117.642 E2.7129
G1 X153.937 Y114.646 E2.9449
G1 X154.277 Y114.305 E2.9737
G1 X157.273 Y111.846 E3.2058
G1 X157.674 Y111.579 E3.2346
G1 X161.092 Y109.752 E3.4667
G1 X161.537 Y109.567 E3.4955
G1 X165.246 Y108.442 E3.7275
G1 X165.718 Y108.348 E3.7564
G1 X169.575 Y107.968 E3.9884
G1 X170.056 Y107.968 E4.0172
G1 X173.914 Y108.348 E4.2493
G1 X174.386 Y108.442 E4.2781
G1 X178.095 Y109.567 E4.5101
G1 X178.540 Y109.752 E4.5390
G1 X181.958 Y111.579 E4.7710
G1 X182.358 Y111.846 E4.7998
G1 X185.354 Y114.305 E5.0319
G1 X185.695 Y114.646 E5.0607
G1 X188.154 Y117.642 E5.2927
G1 X188.421 Y118.042 E5.3216
G1 X190.248 Y121.460 E5.5536
G1 X190.433 Y121.905 E5.5824
G1 X191.558 Y125.614 E5.8145
G1 X191.652 Y126.086 E5.8433
G1 X192.032 Y129.943 E6.0753
G1 X192.032 Y130.425 E6.1042
G1 X191.652 Y134.282 E6.3362
G1 X191.558 Y134.754 E6.3650
G1 X190.433 Y138.463 E6.5971
G1 X190.248 Y138.908 E6.6259
G1 X188.421 Y142.327 E6.8579
G1 X188.154 Y142.727 E6.8868
G1 X185.695 Y145.723 E7.1188
G1 X185.354 Y146.063 E7.1476
G1 X182.358 Y148.522 E7.3797
G1 X181.958 Y148.790 E7.4085
G1 X179.694 Y150.000 E7.5622
G1 X181.958 Y151.210 E7.7159
G1 X182.358 Y151.478 E7.7447
G1 X185.354 Y153.937 E7.9768
G1 X185.695 Y154.277 E8.0056
G1 X188.154 Y157.273 E8.2377
G1 X188.421 Y157.673 E8.2665
G1 X190.248 Y161.092 E8.4985
G1 X190.433 Y161.537 E8.5274
G1 X191.558 Y165.246 E8.7594
G1 X191.652 Y165.718 E8.7882
G1 X192.032 Y169.575 E9.0203
G1 X192.032 Y170.056 E9.0491
G1 X191.652 Y173.914 E9.2811
G1 X191.558 Y174.386 E9.3100
G1 X190.433 Y178.095 E9.5420
G1 X190.248 Y178.540 E9.5708
G1 X188.421 Y181.958 E9.8029
G1 X188.154 Y182.358 E9.8317
G1 X185.695 Y185.354 E10.0637
G1 X185.354 Y185.695 E10.0926
G1 X182.358 Y188.154 E10.3246
G1 X181.958 Y188.421 E10.3534
G1 X178.540 Y190.248 E10.5855
G1 X178.095 Y190.433 E10.6143
G1 X174.386 Y191.558 E10.8463
G1 X173.914 Y191.652 E10.8752
G1 X170.056 Y192.032 E11.1072
G1 X169.575 Y192.032 E11.1360
G1 X165.718 Y191.652 E11.3681
G1 X165.246 Y191.558 E11.3969
G1 X161.537 Y190.433 E11.6289
G1 X161.092 Y190.248 E11.6578
G1 X157.674 Y188.421 E11.8898
G1 X157.273 Y188.154 E11.9186
G1 X154.277 Y185.695 E12.1507
G1 X153.937 Y185.354 E12.1795
G1 X151.478 Y182.358 E12.4115
G1 X151.210 Y181.958 E12.4404
G1 X150.000 Y179.694 E12.5941
G1 X148.790 Y181.958 E12.7478
G1 X148.522 Y182.358 E12.7766
G1 X146.063 Y185.354 E13.0087
G1 X145.723 Y185.695 E13.0375
G1 X142.727 Y188.154 E13.2695
G1 X142.326 Y188.421 E13.2984
G1 X138.908 Y190.248 E13.5304
G1 X138.463 Y190.433 E13.5592
G1 X134.754 Y191.558 E13.7913
G1 X134.282 Y191.652 E13.8201
G1 X130.425 Y192.032 E14.0521
G1 X129.943 Y192.032 E14.0810
G1 X126.086 Y191.652 E14.3130
G1 X125.614 Y191.558 E14.3418
G1 X121.905 Y190.433 E14.5739
G1 X121.460 Y190.248 E14.6027
G1 X118.042 Y188.421 E14.8347
G1 X117.642 Y188.154 E14.8636
G1 X114.646 Y185.695 E15.0956
G1 X114.305 Y185.354 E15.1244
G1 X111.846 Y182.358 E15.3565
G1 X111.579 Y181.958 E15.3853
G1 X109.752 Y178.540 E15.6173
G1 X109.567 Y178.095 E15.6462
G1 X108.442 Y174.386 E15.8782
G1 X108.348 Y173.914 E15.9070
G1 X107.968 Y170.056 E16.1391
G1 X107.968 Y169.575 E16.1679
G1 X108.348 Y165.718 E16.3999
G1 X108.442 Y165.246 E16.4288
G1 X109.567 Y161.537 E16.6608
G1 X109.752 Y161.092 E16.6896
G1 X111.579 Y157.673 E16.9217
G1 X111.846 Y157.273 E16.9505
G1 X114.305 Y154.277 E17.1825
G1 X114.646 Y153.937 E17.2114
G1 X117.642 Y151.478 E17.4434
G1 X118.042 Y151.210 E17.4722
G1 X120.306 Y150.000 E17.6259
G1 X118.042 Y148.790 E17.7797
G1 X117.642 Y148.522 E17.8085
G1 X114.646 Y146.063 E18.0405
G1 X114.305 Y145.723 E18.0694
G1 X111.846 Y142.727 E18.3014
G1 X111.579 Y142.327 E18.3302
G1 X109.752 Y138.908 E18.5623
G1 X109.567 Y138.463 E18.5911
G1 X108.442 Y134.754 E18.8231
G1 X108.348 Y134.282 E18.8520
G1 X107.968 Y130.425 E19.0840
G1 X107.968 Y129.943 E19.1128
G1 X108.348 Y126.086 E19.3449
G1 X108.442 Y125.614 E19.3737
G1 X109.567 Y121.905 E19.6057
G1 X109.752 Y121.460 E19.6346
G1 X111.579 Y118.042 E19.8666
G1 X111.846 Y117.642 E19.8954
G1 X114.305 Y114.646 E20.1275
G92 E0.0000
G1 E-5.0000 F1800
G1 X114.750 Y115.049 F4800
G1 E0.0000 F1800
G92 E0.0000
G1 X115.049 Y114.750 E0.0253 F1200
G1 X118.000 Y112.329 E0.2538
G1 X118.351 Y112.094 E0.2791
G1 X121.717 Y110.295 E0.5076
G1 X122.107 Y110.133 E0.5329
G1 X125.760 Y109.025 E0.7614
G1 X126.174 Y108.943 E0.7867
G1 X129.973 Y108.568 E1.0152
G1 X130.395 Y108.568 E1.0405
G1 X134.194 Y108.943 E1.2690
G1 X134.608 Y109.025 E1.2943
G1 X138.261 Y110.133 E1.5229
G1 X138.651 Y110.295 E1.5481
G1 X142.018 Y112.094 E1.7767
G1 X142.369 Y112.329 E1.8020
G1 X145.319 Y114.750 E2.0305
G1 X145.618 Y115.049 E2.0558
G1 X148.040 Y117.999 E2.2843
G1 X148.274 Y118.351 E2.3096
G1 X150.000 Y121.579 E2.5287
G1 X151.726 Y118.351 E2.7479
G1 X151.960 Y117.999 E2.7732
G1 X154.382 Y115.049 E3.0017
G1 X154.680 Y114.750 E3.0270
G1 X157.631 Y112.329 E3.2555
G1 X157.982 Y112.094 E3.2808
G1 X161.349 Y110.295 E3.5093
G1 X161.739 Y110.133 E3.5346
G1 X165.392 Y109.025 E3.7631
G1 X165.806 Y108.943 E3.7884
G1 X169.605 Y108.568 E4.0169
G1 X170.027 Y108.568 E4.0422
G1 X173.826 Y108.943 E4.2707
G1 X174.240 Y109.025 E4.2960
G1 X177.893 Y110.133 E4.5245
G1 X178.283 Y110.295 E4.5498
G1 X181.649 Y112.094 E4.7783
G1 X182.000 Y112.329 E4.8036
G1 X184.951 Y114.750 E5.0322
G1 X185.250 Y115.049 E5.0574
G1 X187.671 Y117.999 E5.2860
G1 X187.906 Y118.351 E5.3113
G1 X189.705 Y121.717 E5.5398
G1 X189.867 Y122.107 E5.5651
G1 X190.975 Y125.760 E5.7936
G1 X191.057 Y126.174 E5.8189
G1 X191.432 Y129.973 E6.0474
G1 X191.432 Y130.395 E6.0727
G1 X191.057 Y134.194 E6.3012
G1 X190.975 Y134.608 E6.3265
G1 X189.867 Y138.261 E6.5550
G1 X189.705 Y138.651 E6.5803
G1 X187.906 Y142.018 E6.8088
G1 X187.671 Y142.369 E6.8341
G1 X185.250 Y145.320 E7.0626
G1 X184.951 Y145.618 E7.0879
G1 X182.000 Y148.040 E7.3164
G1 X181.649 Y148.274 E7.3417
G1 X178.421 Y150.000 E7.5609
G1 X181.649 Y151.726 E7.7800
G1 X182.000 Y151.960 E7.8053
G1 X184.951 Y154.382 E8.0338
G1 X185.250 Y154.680 E8.0591
G1 X187.671 Y157.631 E8.2877
G1 X187.906 Y157.982 E8.3129
G1 X189.705 Y161.349 E8.5415
G1 X189.867 Y161.739 E8.5668
G1 X190.975 Y165.392 E8.7953
G1 X191.057 Y165.806 E8.8206
G1 X191.432 Y169.605 E9.0491
G1 X191.432 Y170.027 E9.0744
G1 X191.057 Y173.826 E9.3029
G1 X190.975 Y174.240 E9.3282
G1 X189.867 Y177.893 E9.5567
G1 X189.705 Y178.283 E9.5820
G1 X187.906 Y181.649 E9.8105
G1 X187.671 Y182.001 E9.8358
G1 X185.250 Y184.951 E10.0643
G1 X184.951 Y185.250 E10.0896
G1 X182.000 Y187.671 E10.3181
G1 X181.649 Y187.906 E10.3434
G1 X178.283 Y189.705 E10.5719
G1 X177.893 Y189.867 E10.5972
G1 X174.240 Y190.975 E10.8257
G1 X173.826 Y191.057 E10.8510
G1 X170.027 Y191.432 E11.0796
G1 X169.605 Y191.432 E11.1048
G1 X165.806 Y191.057 E11.3334
G1 X165.392 Y190.975 E11.3587
G1 X161.739 Y189.867 E11.5872
G1 X161.349 Y189.705 E11.6125
G1 X157.982 Y187.906 E11.8410
G1 X157.631 Y187.671 E11.8663
G1 X154.680 Y185.250 E12.0948
G1 X154.382 Y184.951 E12.1201
G1 X151.960 Y182.001 E12.3486
G1 X151.726 Y181.649 E12.3739
G1 X150.000 Y178.421 E12.5930
G1 X148.274 Y181.649 E12.8122
G1 X148.040 Y182.001 E12.8375
G1 X145.618 Y184.951 E13.0660
G1 X145.320 Y185.250 E13.0913
G1 X142.369 Y187.671 E13.3198
G1 X142.018 Y187.906 E13.3451
G1 X138.651 Y189.705 E13.5736
G1 X138.261 Y189.867 E13.5989
G1 X134.608 Y190.975 E13.8274
G1 X134.194 Y191.057 E13.8527
G1 X130.395 Y191.432 E14.0812
G1 X129.973 Y191.432 E14.1065
G1 X126.174 Y191.057 E14.3350
G1 X125.760 Y190.975 E14.3603
G1 X122.107 Y189.867 E14.5889
G1 X121.717 Y189.705 E14.6141
G1 X118.351 Y187.906 E14.8427
G1 X118.000 Y187.671 E14.8680
G1 X115.049 Y185.250 E15.0965
G1 X114.750 Y184.951 E15.1218
G1 X112.329 Y182.001 E15.3503
G1 X112.094 Y181.649 E15.3756
G1 X110.295 Y178.283 E15.6041
G1 X110.133 Y177.893 E15.6294
G1 X109.025 Y174.240 E15.8579
G1 X108.943 Y173.826 E15.8832
G1 X108.568 Y170.027 E16.1117
G1 X108.568 Y169.605 E16.1370
G1 X108.943 Y165.806 E16.3655
G1 X109.025 Y165.392 E16.3908
G1 X110.133 Y161.739 E16.6193
G1 X110.295 Y161.349 E16.6446
G1 X112.094 Y157.982 E16.8731
G1 X112.329 Y157.631 E16.8984
G1 X114.750 Y154.680 E17.1270
G1 X115.049 Y154.382 E17.1522
G1 X118.000 Y151.960 E17.3808
G1 X118.351 Y151.726 E17.4061
G1 X121.579 Y150.000 E17.6252
G1 X118.351 Y148.274 E17.8444
G1 X118.000 Y148.040 E17.8696
G1 X115.049 Y145.618 E18.0982
G1 X114.750 Y145.320 E18.1235
G1 X112.329 Y142.369 E18.3520
G1 X112.094 Y142.018 E18.3773
G1 X110.295 Y138.651 E18.6058
G1 X110.133 Y138.261 E18.6311
G1 X109.025 Y134.608 E18.8596
G1 X108.943 Y134.194 E18.8849
G1 X108.568 Y130.395 E19.1134
G1 X108.568 Y129.973 E19.1387
G1 X108.943 Y126.174 E19.3672
G1 X109.025 Y125.760 E19.3925
G1 X110.133 Y122.107 E19.6210
G1 X110.295 Y121.717 E19.6463
G1 X112.094 Y118.351 E19.8748
G1 X112.329 Y117.999 E19.9001
G1 X114.750 Y115.049 E20.1286
G92 E0.0000
G1 E-5.0000 F1800
; feature inner perimeter
G1 X118.580 Y118.580 F4800
G1 E0.0000 F1800
G92 E0.0000
G1 X121.067 Y116.539 E0.1926 F900
G1 X123.904 Y115.022 E0.3852
G1 X126.983 Y114.088 E0.5778
G1 X130.184 Y113.773 E0.7704
G1 X133.386 Y114.088 E0.9630
G1 X136.465 Y115.022 E1.1556
G1 X139.302 Y116.539 E1.3483
G1 X141.789 Y118.580 E1.5409
G1 X143.830 Y121.066 E1.7335
G1 X145.346 Y123.904 E1.9261
G1 X146.280 Y126.983 E2.1187
G1 X146.596 Y130.184 E2.3113
G1 X146.280 Y133.386 E2.5039
G1 X145.346 Y136.465 E2.6965
G1 X143.830 Y139.302 E2.8891
G1 X141.789 Y141.789 E3.0817
